; generated by PrusaSlicer 2.5.0+win64 on 2023-03-27 at 13:00:38 UTC


;
;

;
;
; 

; external perimeters extrusion width = 0.45mm
; perimeters extrusion width = 0.45mm
; infill extrusion width = 0.45mm
; solid infill extrusion width = 0.45mm
; top infill extrusion width = 0.40mm
; first layer extrusion width = 0.42mm

M73 P0 R43
M201 X2500 Y2500 Z400 E5000 ; sets maximum accelerations, mm/sec^2
M203 X180 Y180 Z12 E80 ; sets maximum feedrates, mm / sec
M204 P1250 R1250 T2500 ; sets acceleration (P, T) and retract acceleration (R), mm/sec^2
M205 X8.00 Y8.00 Z2.00 E10.00 ; sets the jerk limits, mm/sec
M205 S0 T0 ; sets the minimum extruding and travel feed rate, mm/sec
M107
;TYPE:Custom
M862.3 P "MINI" ; printer model check
G90 ; use absolute coordinates
M83 ; extruder relative mode
M104 S170 ; set extruder temp for bed leveling
M140 S60 ; set bed temp
M109 R170 ; wait for bed leveling temp
M190 S60 ; wait for bed temp
M204 T1250 ; set travel acceleration
G28 ; home all without mesh bed level
G29 ; mesh bed leveling 
M204 T2500 ; restore travel acceleration
M104 S215 ; set extruder temp
G92 E0
G1 Y-2 X179 F2400
G1 Z3 F720
M109 S215 ; wait for extruder temp

; intro line
G1 X170 F1000
G1 Z0.2 F720
G1 X110 E8 F900
G1 X40 E10 F700
G92 E0

M221 S95 ; set flow
G21 ; set units to millimeters
G90 ; use absolute coordinates
M83 ; use relative distances for extrusion
M900 K0.2 ; Filament gcode LA 1.5
; ; Filament gcode LA 1.0
M107
;LAYER_CHANGE
;Z:0.2
;HEIGHT:0.2
;BEFORE_LAYER_CHANGE
G92 E0.0
;0.2


G1 E-3.2 F4200
M73 P0 R42
G1 Z.2 F720
;AFTER_LAYER_CHANGE
;0.2
G1 Z.4
G1 X67.18 Y67.282 F9000
G1 Z.2 F720
G1 E3.2 F2400
M204 P800
;TYPE:Skirt/Brim
;WIDTH:0.42
G1 F1200
G1 X68.594 Y65.945 E.06099
G1 X70.198 Y64.608 E.06549
G1 X71.767 Y63.459 E.06099
G1 X73.403 Y62.407 E.06099
G1 X75.099 Y61.455 E.06099
G1 X76.719 Y60.666 E.05649
G1 X78.649 Y59.867 E.06549
G1 X80.489 Y59.237 E.06099
G1 X82.224 Y58.753 E.05649
G1 X84.125 Y58.34 E.06099
G1 X86.047 Y58.043 E.06099
G1 X88.127 Y57.854 E.06549
G1 X89.928 Y57.8 E.05649
G1 X91.873 Y57.854 E.06099
G1 X93.953 Y58.043 E.06549
G1 X95.875 Y58.34 E.06099
G1 X97.776 Y58.753 E.06099
G1 X99.648 Y59.279 E.06099
G1 X101.351 Y59.867 E.05649
G1 X103.281 Y60.666 E.06549
G1 X105.028 Y61.522 E.06099
G1 X106.72 Y62.481 E.06099
G1 X108.233 Y63.459 E.05649
G1 X109.802 Y64.608 E.06099
G1 X111.406 Y65.945 E.06549
G1 X112.718 Y67.18 E.05649
G1 X114.055 Y68.594 E.06099
G1 X115.392 Y70.198 E.06549
G1 X116.541 Y71.767 E.06099
G1 X117.593 Y73.403 E.06099
G1 X118.545 Y75.099 E.06099
G1 X119.334 Y76.719 E.05649
G1 X120.133 Y78.649 E.06549
G1 X120.763 Y80.489 E.06099
G1 X121.247 Y82.224 E.05649
G1 X121.66 Y84.125 E.06099
G1 X121.957 Y86.047 E.06099
G1 X122.146 Y88.127 E.06549
G1 X122.2 Y89.928 E.05649
G1 X122.146 Y91.873 E.06099
G1 X121.957 Y93.953 E.06549
G1 X121.66 Y95.875 E.06099
G1 X121.247 Y97.776 E.06099
G1 X120.721 Y99.648 E.06099
G1 X120.133 Y101.351 E.05649
G1 X119.334 Y103.281 E.06549
G1 X118.478 Y105.028 E.06099
G1 X117.519 Y106.72 E.06099
G1 X116.541 Y108.233 E.05649
G1 X115.392 Y109.802 E.06099
G1 X114.055 Y111.406 E.06549
G1 X112.82 Y112.718 E.05649
G1 X111.406 Y114.055 E.06099
G1 X109.802 Y115.392 E.06549
G1 X108.233 Y116.541 E.06099
G1 X106.597 Y117.593 E.06099
G1 X104.901 Y118.545 E.06099
G1 X103.281 Y119.334 E.05649
G1 X101.351 Y120.133 E.06549
G1 X99.511 Y120.763 E.06099
G1 X97.776 Y121.247 E.05649
G1 X95.875 Y121.66 E.06099
G1 X93.953 Y121.957 E.06099
G1 X91.873 Y122.146 E.06549
G1 X90.072 Y122.2 E.05649
G1 X88.127 Y122.146 E.06099
G1 X86.047 Y121.957 E.06549
G1 X84.125 Y121.66 E.06099
G1 X82.224 Y121.247 E.06099
G1 X80.352 Y120.721 E.06099
G1 X78.649 Y120.133 E.05649
G1 X76.719 Y119.334 E.06549
G1 X74.972 Y118.478 E.06099
G1 X73.28 Y117.519 E.06099
G1 X71.767 Y116.541 E.05649
G1 X70.198 Y115.392 E.06099
G1 X68.594 Y114.055 E.06549
G1 X67.282 Y112.82 E.05649
G1 X65.945 Y111.406 E.06099
G1 X64.608 Y109.802 E.06549
G1 X63.459 Y108.233 E.06099
G1 X62.407 Y106.597 E.06099
G1 X61.455 Y104.901 E.06099
G1 X60.666 Y103.281 E.05649
G1 X59.867 Y101.351 E.06549
G1 X59.237 Y99.511 E.06099
G1 X58.753 Y97.776 E.05649
G1 X58.34 Y95.875 E.06099
G1 X58.043 Y93.953 E.06099
G1 X57.854 Y91.873 E.06549
G1 X57.8 Y90.072 E.05649
G1 X57.854 Y88.127 E.06099
G1 X58.043 Y86.047 E.06549
G1 X58.34 Y84.125 E.06099
G1 X58.753 Y82.224 E.06099
G1 X59.279 Y80.352 E.06099
G1 X59.867 Y78.649 E.05649
G1 X60.666 Y76.719 E.06549
G1 X61.522 Y74.972 E.06099
G1 X62.481 Y73.28 E.06099
M73 P1 R42
G1 X63.459 Y71.767 E.05649
G1 X64.608 Y70.198 E.06099
G1 X65.945 Y68.594 E.06549
G1 X67.139 Y67.326 E.05461
M204 P1000
; printing object 50mm_cookie_cutter_v2.stl id:0 copy 0
G1 E-2.24 F4200
;WIPE_START
G1 F7200
G1 X68.333 Y66.193 E-.912
;WIPE_END
G1 E-.048 F4200
G1 Z.4 F720
G1 X69.253 Y70.23 F9000
G1 Z.2 F720
G1 E3.2 F2400
M204 P800
;TYPE:Perimeter
;WIDTH:0.39704
G1 F1200
G1 X69.274 Y70.208 E.00092
;WIDTH:0.409524
G1 X69.735 Y69.728 E.02029
G1 X70.537 Y68.965 E.03373
;WIDTH:0.397422
G1 X70.571 Y68.933 E.00137
;WIDTH:0.409114
G1 X70.996 Y68.541 E.01762
G1 X71.909 Y67.772 E.03634
;WIDTH:0.397644
G1 X71.92 Y67.763 E.00041
;WIDTH:0.408571
G1 X72.326 Y67.432 E.01594
G1 X73.354 Y66.669 E.03892
;WIDTH:0.407894
G1 X73.721 Y66.406 E.0137
G1 X74.867 Y65.66 E.04149
;WIDTH:0.407085
G1 X75.175 Y65.466 E.01103
G1 X76.44 Y64.748 E.04403
;WIDTH:0.406144
G1 X78.067 Y63.938 E.05492
;WIDTH:0.40507
G1 X79.743 Y63.233 E.05475
;WIDTH:0.403865
G1 X81.461 Y62.634 E.05458
;WIDTH:0.403078
G1 X81.516 Y62.618 E.00173
;WIDTH:0.404362
G1 X83.269 Y62.137 E.05465
;WIDTH:0.405513
G1 X85.05 Y61.768 E.05482
;WIDTH:0.406534
G1 X86.85 Y61.512 E.05497
;WIDTH:0.407425
G1 X88.264 Y61.388 E.04302
G1 X88.663 Y61.371 E.0121
;WIDTH:0.408179
G1 X89.994 Y61.335 E.04047
G1 X90.462 Y61.344 E.0142
;WIDTH:0.408654
G1 X91.688 Y61.386 E.03729
G1 X92.296 Y61.435 E.01856
;WIDTH:0.409283
G1 X93.45 Y61.544 E.03531
G1 X94.103 Y61.637 E.02009
;WIDTH:0.40965
G1 X95.161 Y61.805 E.03268
G1 X95.893 Y61.955 E.02277
;WIDTH:0.40993
G1 X96.865 Y62.17 E.03039
G1 X98.533 Y62.636 E.05284
G1 X100.169 Y63.201 E.05284
G1 X101.093 Y63.576 E.03041
;WIDTH:0.409756
G1 X101.769 Y63.864 E.02242
G1 X102.704 Y64.312 E.03163
;WIDTH:0.397106
G1 X102.746 Y64.332 E.00137
;WIDTH:0.409453
G1 X103.326 Y64.622 E.01976
G1 X104.308 Y65.169 E.03425
;WIDTH:0.397515
G1 X104.348 Y65.191 E.00137
;WIDTH:0.409014
G1 X104.834 Y65.473 E.01709
G1 X105.854 Y66.125 E.03685
;WIDTH:0.397747
G1 X105.865 Y66.132 E.0004
;WIDTH:0.408444
G1 X106.288 Y66.413 E.01542
G1 X107.336 Y67.178 E.03944
;WIDTH:0.407742
G1 X107.683 Y67.439 E.01316
G1 X108.749 Y68.322 E.042
;WIDTH:0.406907
G1 X109.013 Y68.547 E.0105
G1 X110.087 Y69.553 E.04453
;WIDTH:0.405939
G1 X111.344 Y70.867 E.05488
;WIDTH:0.404839
G1 X112.515 Y72.258 E.05472
;WIDTH:0.403607
G1 X113.589 Y73.711 E.0542
;WIDTH:0.403343
G1 X113.628 Y73.768 E.00207
;WIDTH:0.404603
G1 X114.608 Y75.3 E.05469
;WIDTH:0.40573
G1 X115.489 Y76.89 E.05485
;WIDTH:0.406723
G1 X116.268 Y78.533 E.055
;WIDTH:0.407587
G1 X116.8 Y79.83 E.04251
G1 X116.941 Y80.222 E.01263
;WIDTH:0.408316
G1 X117.365 Y81.467 E.03995
G1 X117.506 Y81.95 E.0153
;WIDTH:0.408912
G1 X117.83 Y83.135 E.03737
G1 X117.96 Y83.711 E.01797
;WIDTH:0.409375
G1 X118.194 Y84.828 E.03477
G1 X118.302 Y85.496 E.02064
;WIDTH:0.409706
G1 X118.454 Y86.539 E.03215
G1 X118.528 Y87.281 E.02274
;WIDTH:0.410161
G1 X118.612 Y88.275 E.03044
G1 X118.644 Y89.114 E.02565
;WIDTH:0.409971
G1 X118.664 Y90.006 E.02721
;WIDTH:0.409907
G1 X118.611 Y91.736 E.05284
G1 X118.526 Y92.746 E.03094
;WIDTH:0.409705
G1 X118.454 Y93.461 E.02189
G1 X118.302 Y94.504 E.03215
;WIDTH:0.397176
G1 X118.295 Y94.55 E.00137
;WIDTH:0.409375
G1 X118.194 Y95.172 E.01922
G1 X117.96 Y96.289 E.03477
;WIDTH:0.39761
G1 X117.95 Y96.335 E.00137
;WIDTH:0.408912
G1 X117.83 Y96.865 E.01655
G1 X117.506 Y98.05 E.03737
;WIDTH:0.408316
G1 X117.365 Y98.533 E.0153
G1 X116.941 Y99.778 E.03995
;WIDTH:0.407587
G1 X116.8 Y100.17 E.01263
G1 X116.268 Y101.467 E.04251
;WIDTH:0.406722
G1 X115.489 Y103.11 E.055
;WIDTH:0.405731
G1 X114.608 Y104.7 E.05485
;WIDTH:0.404602
G1 X113.628 Y106.232 E.05469
;WIDTH:0.402321
G1 X113.595 Y106.279 E.00171
;WIDTH:0.403592
G1 X112.527 Y107.728 E.05399
;WIDTH:0.404875
G1 X111.344 Y109.133 E.05528
;WIDTH:0.405941
G1 X110.087 Y110.447 E.05489
;WIDTH:0.406908
G1 X108.763 Y111.666 E.05447
;WIDTH:0.407862
G1 X107.682 Y112.561 E.04257
G1 X107.336 Y112.822 E.01317
;WIDTH:0.408444
G1 X106.288 Y113.587 E.03944
G1 X105.854 Y113.875 E.01583
;WIDTH:0.409014
G1 X104.834 Y114.527 E.03685
G1 X104.308 Y114.831 E.0185
;WIDTH:0.409451
G1 X103.326 Y115.378 E.03425
G1 X102.704 Y115.688 E.02117
;WIDTH:0.409755
G1 X101.769 Y116.136 E.03163
G1 X101.05 Y116.442 E.02384
;WIDTH:0.409877
G1 X100.159 Y116.803 E.02933
G1 X98.522 Y117.368 E.05283
G1 X96.854 Y117.832 E.05283
G1 X95.848 Y118.055 E.03146
;WIDTH:0.40965
G1 X95.161 Y118.195 E.02136
G1 X94.103 Y118.363 E.03268
;WIDTH:0.397252
G1 X94.057 Y118.37 E.00137
;WIDTH:0.409291
G1 X93.45 Y118.456 E.01869
G1 X92.296 Y118.567 E.03529
;WIDTH:0.397714
G1 X92.25 Y118.571 E.00137
;WIDTH:0.408805
G1 X91.725 Y118.612 E.01602
G1 X90.48 Y118.655 E.03789
;WIDTH:0.40818
G1 X89.994 Y118.665 E.01476
G1 X88.663 Y118.629 E.04047
;WIDTH:0.407425
G1 X88.264 Y118.612 E.0121
G1 X86.85 Y118.488 E.04302
;WIDTH:0.406534
G1 X85.05 Y118.232 E.05497
;WIDTH:0.405515
G1 X83.269 Y117.863 E.05482
;WIDTH:0.404361
G1 X81.516 Y117.382 E.05465
;WIDTH:0.403079
G1 X81.461 Y117.366 E.00171
;WIDTH:0.403865
G1 X79.743 Y116.767 E.0546
;WIDTH:0.40507
G1 X78.067 Y116.062 E.05476
;WIDTH:0.406145
G1 X76.456 Y115.26 E.05436
;WIDTH:0.407184
G1 X75.175 Y114.534 E.0446
G1 X74.867 Y114.34 E.01104
;WIDTH:0.407649
G1 X73.753 Y113.614 E.04032
G1 X73.355 Y113.33 E.01482
;WIDTH:0.408561
G1 X72.326 Y112.567 E.03894
G1 X71.909 Y112.228 E.01636
;WIDTH:0.409115
G1 X70.996 Y111.459 E.03634
G1 X70.537 Y111.035 E.01903
;WIDTH:0.409524
G1 X69.735 Y110.272 E.03373
G1 X69.243 Y109.759 E.0217
;WIDTH:0.409802
G1 X68.548 Y109.012 E.0311
G1 X68.032 Y108.403 E.02437
;WIDTH:0.409962
G1 X67.433 Y107.673 E.0288
G1 X66.909 Y106.973 E.0267
G1 X66.407 Y106.278 E.02615
G1 X65.879 Y105.474 E.02935
;WIDTH:0.409842
G1 X65.467 Y104.824 E.02349
G1 X64.969 Y103.954 E.03058
;WIDTH:0.39698
G1 X64.946 Y103.914 E.00137
;WIDTH:0.40959
G1 X64.617 Y103.316 E.02082
G1 X64.134 Y102.34 E.0332
;WIDTH:0.397334
G1 X64.114 Y102.298 E.00137
;WIDTH:0.409206
G1 X63.859 Y101.759 E.01815
G1 X63.403 Y100.675 E.03582
;WIDTH:0.39782
G1 X63.386 Y100.632 E.00137
;WIDTH:0.40869
G1 X63.196 Y100.159 E.01549
G1 X62.779 Y98.967 E.03841
;WIDTH:0.40804
G1 X62.632 Y98.523 E.01423
G1 X62.265 Y97.224 E.04098
;WIDTH:0.407258
G1 X62.166 Y96.855 E.01157
G1 X61.861 Y95.451 E.04352
;WIDTH:0.406343
G1 X61.571 Y93.656 E.05494
;WIDTH:0.405296
G1 X61.396 Y91.864 E.05425
;WIDTH:0.404663
G1 X61.333 Y90.029 E.05522
;WIDTH:0.402822
G1 X61.333 Y89.971 E.00174
;WIDTH:0.404117
G1 X61.395 Y88.154 E.05461
;WIDTH:0.405296
G1 X61.571 Y86.344 E.05479
;WIDTH:0.406343
G1 X61.861 Y84.549 E.05495
;WIDTH:0.407258
G1 X62.166 Y83.145 E.04352
G1 X62.265 Y82.776 E.01157
;WIDTH:0.408041
G1 X62.632 Y81.477 E.04098
G1 X62.779 Y81.033 E.01423
;WIDTH:0.40869
G1 X63.196 Y79.841 E.03841
G1 X63.403 Y79.325 E.0169
;WIDTH:0.409205
G1 X63.859 Y78.241 E.03582
G1 X64.134 Y77.66 E.01957
;WIDTH:0.409591
G1 X64.617 Y76.684 E.0332
G1 X64.969 Y76.046 E.02224
;WIDTH:0.409843
G1 X65.467 Y75.176 E.03058
G1 X65.905 Y74.487 E.0249
;WIDTH:0.409419
G1 X66.392 Y73.744 E.02708
G1 X66.937 Y72.991 E.02833
;WIDTH:0.409944
G1 X67.44 Y72.318 E.02564
G1 X68.061 Y71.562 E.02986
;WIDTH:0.409802
G1 X68.548 Y70.988 E.02296
G1 X69.212 Y70.274 E.02973
M204 P1000
G1 X69.468 Y69.468 F9000
M204 P800
;TYPE:External perimeter
;WIDTH:0.419999
G1 F1200
G1 X70.745 Y68.266 E.05499
G1 X72.093 Y67.143 E.055
G1 X73.506 Y66.104 E.05499
G1 X74.978 Y65.151 E.05499
G1 X76.506 Y64.29 E.05499
G1 X78.083 Y63.522 E.05499
G1 X79.704 Y62.851 E.055
G1 X81.362 Y62.279 E.05499
G1 X83.051 Y61.808 E.05499
G1 X84.766 Y61.439 E.05499
G1 X86.5 Y61.176 E.05499
G1 X88.247 Y61.017 E.05499
G1 X90 Y60.964 E.05499
G1 X91.715 Y61.016 E.0538
G1 X93.5 Y61.176 E.05619
G1 X95.234 Y61.439 E.05499
G1 X96.949 Y61.808 E.05499
G1 X98.638 Y62.279 E.05499
G1 X100.296 Y62.851 E.05499
G1 X101.917 Y63.522 E.05499
G1 X103.494 Y64.29 E.05499
G1 X105.022 Y65.151 E.05499
G1 X106.494 Y66.104 E.05499
G1 X107.907 Y67.143 E.05499
G1 X109.255 Y68.266 E.055
G1 X110.532 Y69.468 E.05499
G1 X111.734 Y70.745 E.05499
G1 X112.857 Y72.093 E.055
G1 X113.896 Y73.506 E.05499
G1 X114.849 Y74.978 E.05499
G1 X115.71 Y76.506 E.05499
G1 X116.478 Y78.083 E.05499
G1 X117.149 Y79.704 E.055
G1 X117.721 Y81.362 E.05499
G1 X118.192 Y83.051 E.05499
G1 X118.561 Y84.766 E.05499
G1 X118.824 Y86.5 E.05499
G1 X118.983 Y88.247 E.05499
G1 X119.036 Y90.017 E.05552
G1 X118.983 Y91.753 E.05447
G1 X118.824 Y93.5 E.05499
G1 X118.561 Y95.234 E.05499
G1 X118.192 Y96.949 E.05499
G1 X117.721 Y98.638 E.05499
G1 X117.149 Y100.296 E.05499
G1 X116.478 Y101.917 E.05499
G1 X115.71 Y103.494 E.05499
G1 X114.849 Y105.022 E.05499
G1 X113.917 Y106.463 E.0538
G1 X112.857 Y107.907 E.05619
G1 X111.734 Y109.255 E.05499
G1 X110.532 Y110.532 E.05499
G1 X109.255 Y111.734 E.05499
G1 X107.907 Y112.857 E.055
G1 X106.494 Y113.896 E.05499
G1 X105.022 Y114.849 E.05499
G1 X103.494 Y115.71 E.05499
G1 X101.917 Y116.478 E.05499
G1 X100.296 Y117.149 E.055
G1 X98.638 Y117.721 E.05499
G1 X96.949 Y118.192 E.05499
G1 X95.234 Y118.561 E.05499
G1 X93.5 Y118.824 E.05499
G1 X91.753 Y118.983 E.05499
G1 X90 Y119.036 E.05499
G1 X88.247 Y118.983 E.05499
G1 X86.5 Y118.824 E.05499
G1 X84.766 Y118.561 E.05499
G1 X83.051 Y118.192 E.05499
G1 X81.362 Y117.721 E.05499
G1 X79.704 Y117.149 E.05499
G1 X78.083 Y116.478 E.05499
G1 X76.506 Y115.71 E.05499
G1 X74.978 Y114.849 E.05499
G1 X73.537 Y113.917 E.0538
G1 X72.093 Y112.857 E.05619
G1 X70.745 Y111.734 E.05499
G1 X69.468 Y110.532 E.05499
G1 X68.266 Y109.255 E.05499
G1 X67.143 Y107.907 E.055
G1 X66.104 Y106.494 E.05499
G1 X65.151 Y105.022 E.05499
G1 X64.29 Y103.494 E.05499
G1 X63.522 Y101.917 E.05499
G1 X62.851 Y100.296 E.055
G1 X62.279 Y98.638 E.05499
G1 X61.808 Y96.949 E.05499
G1 X61.439 Y95.234 E.05499
G1 X61.176 Y93.5 E.05499
G1 X61.017 Y91.753 E.05499
G1 X60.964 Y90 E.05499
G1 X61.017 Y88.247 E.05499
G1 X61.176 Y86.5 E.05499
G1 X61.439 Y84.766 E.05499
G1 X61.808 Y83.051 E.05499
G1 X62.279 Y81.362 E.05499
G1 X62.851 Y79.704 E.05499
G1 X63.522 Y78.083 E.05499
G1 X64.29 Y76.506 E.05499
G1 X65.151 Y74.978 E.05499
G1 X66.083 Y73.537 E.0538
G1 X67.143 Y72.093 E.05619
G1 X68.266 Y70.745 E.05499
G1 X69.427 Y69.512 E.05311
M204 P1000
G1 X69.855 Y69.572 F9000
G1 X69.517 Y70.467
M204 P800
;TYPE:Perimeter
;WIDTH:0.409524
G1 F1200
G1 X70.782 Y69.22 E.05417
;WIDTH:0.409114
G1 X72.139 Y68.043 E.05469
;WIDTH:0.408571
G1 X73.567 Y66.954 E.05461
;WIDTH:0.407894
G1 X75.062 Y65.958 E.05451
;WIDTH:0.407085
G1 X76.617 Y65.058 E.05439
;WIDTH:0.406144
G1 X78.225 Y64.259 E.05425
;WIDTH:0.40507
G1 X79.881 Y63.564 E.05409
;WIDTH:0.403865
G1 X81.579 Y62.975 E.05392
;WIDTH:0.403079
G1 X81.612 Y62.965 E.00104
;WIDTH:0.404362
G1 X83.344 Y62.488 E.05398
;WIDTH:0.405513
G1 X85.102 Y62.121 E.05415
;WIDTH:0.406534
G1 X86.88 Y61.867 E.05431
;WIDTH:0.407425
G1 X88.671 Y61.726 E.05444
;WIDTH:0.408179
G1 X90.448 Y61.699 E.05399
;WIDTH:0.408654
G1 X92.225 Y61.784 E.0541
;WIDTH:0.39694
G1 X92.261 Y61.787 E.00105
;WIDTH:0.409283
G1 X94.011 Y61.981 E.05364
;WIDTH:0.397252
G1 X94.045 Y61.987 E.00104
;WIDTH:0.40965
G1 X95.78 Y62.292 E.0537
;WIDTH:0.409876
G1 X97.525 Y62.715 E.0548
G1 X98.419 Y62.984 E.02847
G1 X99.241 Y63.247 E.02634
G1 X100.919 Y63.887 E.0548
;WIDTH:0.409756
G1 X102.553 Y64.632 E.05478
;WIDTH:0.409453
G1 X104.137 Y65.479 E.05474
;WIDTH:0.409014
G1 X105.664 Y66.425 E.05467
;WIDTH:0.397747
G1 X105.672 Y66.43 E.0003
;WIDTH:0.408444
G1 X107.128 Y67.466 E.05428
;WIDTH:0.407742
G1 X108.523 Y68.597 E.05449
;WIDTH:0.406907
G1 X109.843 Y69.814 E.05436
;WIDTH:0.405939
G1 X111.084 Y71.113 E.05422
;WIDTH:0.404839
G1 X112.24 Y72.488 E.05405
;WIDTH:0.403607
G1 X113.299 Y73.924 E.05353
;WIDTH:0.403343
G1 X113.326 Y73.963 E.0014
;WIDTH:0.404603
G1 X114.295 Y75.475 E.05402
