; generated by PrusaSlicer 2.5.0+win64 on 2023-03-27 at 14:21:30 UTC


;
;

;
;
; 

; external perimeters extrusion width = 0.45mm
; perimeters extrusion width = 0.45mm
; infill extrusion width = 0.45mm
; solid infill extrusion width = 0.45mm
; top infill extrusion width = 0.40mm
; first layer extrusion width = 0.42mm

M73 P0 R83
M201 X2500 Y2500 Z400 E5000 ; sets maximum accelerations, mm/sec^2
M203 X180 Y180 Z12 E80 ; sets maximum feedrates, mm / sec
M204 P1250 R1250 T2500 ; sets acceleration (P, T) and retract acceleration (R), mm/sec^2
M205 X8.00 Y8.00 Z2.00 E10.00 ; sets the jerk limits, mm/sec
M205 S0 T0 ; sets the minimum extruding and travel feed rate, mm/sec
M107
;TYPE:Custom
M862.3 P "MINI" ; printer model check
G90 ; use absolute coordinates
M83 ; extruder relative mode
M104 S170 ; set extruder temp for bed leveling
M140 S60 ; set bed temp
M109 R170 ; wait for bed leveling temp
M190 S60 ; wait for bed temp
M204 T1250 ; set travel acceleration
G28 ; home all without mesh bed level
G29 ; mesh bed leveling 
M204 T2500 ; restore travel acceleration
M104 S215 ; set extruder temp
G92 E0
G1 Y-2 X179 F2400
G1 Z3 F720
M109 S215 ; wait for extruder temp

; intro line
G1 X170 F1000
G1 Z0.2 F720
G1 X110 E8 F900
G1 X40 E10 F700
G92 E0

M221 S95 ; set flow
G21 ; set units to millimeters
G90 ; use absolute coordinates
M83 ; use relative distances for extrusion
M900 K0.2 ; Filament gcode LA 1.5
; ; Filament gcode LA 1.0
M107
;LAYER_CHANGE
;Z:0.2
;HEIGHT:0.2
;BEFORE_LAYER_CHANGE
G92 E0.0
;0.2


G1 E-3.2 F4200
G1 Z.2 F720
;AFTER_LAYER_CHANGE
;0.2
G1 Z.4
G1 X70.473 Y69.913 F9000
G1 Z.2 F720
G1 E3.2 F2400
M204 P800
;TYPE:Skirt/Brim
;WIDTH:0.42
G1 F1200
G1 X70.632 Y69.752 E.00708
G1 X72.294 Y69.056 E.05651
G1 X97.892 Y68.878 E.80262
G1 X101.744 Y68.943 E.12078
G1 X103.931 Y69.315 E.06957
G1 X121.243 Y75.021 E.57151
G1 X121.817 Y75.301 E.02003
G1 X124.445 Y77.058 E.09912
G1 X125.331 Y78.151 E.04413
G1 X126.274 Y80.665 E.08417
G1 X126.967 Y83.686 E.09717
G1 X127.528 Y86.987 E.10499
G1 X127.023 Y88.882 E.06151
G1 X112.273 Y106.907 E.73025
G1 X109.245 Y110.111 E.13823
G1 X107.579 Y110.852 E.05716
G1 X100.553 Y111.004 E.22033
G1 X83.74 Y111.119 E.52717
G1 X79.564 Y111.099 E.13093
G1 X77.336 Y110.95 E.07002
G1 X75.631 Y110.587 E.05466
G1 X58.508 Y105.184 E.56298
G1 X57.809 Y104.829 E.02458
G1 X55.146 Y102.859 E.10386
G1 X54.293 Y101.664 E.04602
G1 X53.504 Y99.108 E.08388
G1 X52.95 Y96.5 E.08358
G1 X52.769 Y95.24 E.03991
G1 X52.61 Y92.985 E.07089
G1 X53.106 Y91.362 E.0532
G1 X67.45 Y72.959 E.7316
G1 X70.43 Y69.955 E.13267
M204 P1000
G1 E-2.24 F4200
;WIPE_START
G1 F7200
G1 X70.632 Y69.752 E-.15842
G1 X71.886 Y69.227 E-.75358
;WIPE_END
G1 E-.048 F4200
G1 Z.4 F720
G1 X71.995 Y72.351 F9000
G1 Z.2 F720
G1 E3.2 F2400
M204 P800
G1 F1200
G1 X73.944 Y71.723 E.06422
G1 X96.089 Y71.544 E.69435
G1 X100.363 Y71.558 E.13401
G1 X101.7 Y71.612 E.04198
G1 X102.534 Y71.731 E.0264
G1 X103.526 Y71.968 E.03198
G1 X104.378 Y72.267 E.0283
G1 X105.173 Y72.642 E.02757
G1 X105.999 Y73.142 E.03028
G1 X106.768 Y73.718 E.03012
G1 X107.57 Y74.433 E.03368
G1 X108.368 Y75.24 E.03559
M73 P0 R82
G1 X108.929 Y75.875 E.02658
G1 X109.471 Y76.595 E.02827
G1 X109.954 Y77.398 E.02937
G1 X110.073 Y77.667 E.00923
G1 X119.326 Y77.578 E.29013
G1 X121.331 Y78.187 E.06571
G1 X122.455 Y79.057 E.04457
G1 X123.281 Y80.221 E.04475
G1 X123.664 Y81.219 E.0335
G1 X123.896 Y82.12 E.02919
G1 X124.303 Y83.95 E.05877
G1 X124.591 Y85.753 E.05723
G1 X124.542 Y86.599 E.02658
G1 X124.341 Y87.434 E.02693
G1 X123.806 Y88.526 E.03813
G1 X123.116 Y89.354 E.03378
G1 X122.286 Y90.006 E.03311
G1 X121.305 Y90.461 E.0339
G1 X120.155 Y90.696 E.0368
G1 X115.253 Y90.714 E.15369
G1 X109.691 Y90.791 E.17441
G1 X109.555 Y91.071 E.00975
G1 X108.939 Y92.003 E.03502
G1 X108.354 Y92.726 E.02916
G1 X107.803 Y93.325 E.02552
G1 X107.232 Y93.89 E.02519
G1 X106.617 Y94.441 E.02588
G1 X105.635 Y95.223 E.03937
G1 X106.596 Y95.406 E.03067
G1 X107.664 Y95.885 E.03671
G1 X108.949 Y97.018 E.05371
G1 X109.564 Y98.03 E.03714
G1 X109.922 Y99.213 E.03874
G1 X110.084 Y103.834 E.145
G1 X109.872 Y104.896 E.03395
G1 X109.383 Y105.968 E.03694
G1 X108.503 Y107.001 E.04255
G1 X107.813 Y107.548 E.02761
G1 X105.844 Y108.23 E.06535
G1 X102.562 Y108.312 E.10292
G1 X99.425 Y108.352 E.09838
G1 X84.439 Y108.453 E.46988
G1 X79.979 Y108.444 E.13984
G1 X78.8 Y108.406 E.03699
G1 X77.637 Y108.303 E.03662
G1 X76.752 Y108.134 E.02824
G1 X75.826 Y107.833 E.03052
G1 X74.355 Y107.096 E.05159
G1 X73.669 Y106.675 E.02524
G1 X72.86 Y106.099 E.03114
G1 X72.263 Y105.611 E.02417
G1 X71.496 Y104.895 E.03292
G1 X70.744 Y104.066 E.03508
G1 X70.258 Y103.448 E.02465
G1 X69.781 Y102.726 E.02715
G1 X60.401 Y102.632 E.29411
G1 X58.334 Y101.911 E.06863
G1 X57.574 Y101.3 E.03057
G1 X56.928 Y100.545 E.03117
G1 X56.254 Y99.017 E.05238
G1 X55.883 Y97.604 E.04581
G1 X55.623 Y96.321 E.04103
G1 X55.437 Y95.14 E.0375
G1 X55.392 Y94.069 E.03361
G1 X55.747 Y92.565 E.04846
G1 X56.414 Y91.438 E.04105
G1 X57.351 Y90.525 E.04102
G1 X58.692 Y89.836 E.04726
G1 X60.416 Y89.568 E.05472
G1 X61.914 Y89.524 E.04699
G1 X69.259 Y89.468 E.23028
G1 X69.551 Y88.874 E.02077
G1 X69.902 Y88.28 E.02163
G1 X70.453 Y87.502 E.02988
G1 X70.887 Y86.98 E.02129
G1 X71.464 Y86.378 E.02615
G1 X71.994 Y85.908 E.0222
G1 X72.7 Y85.379 E.02768
G1 X73.458 Y84.912 E.02789
G1 X71.99 Y84.289 E.04999
G1 X70.931 Y83.435 E.04264
G1 X70.233 Y82.517 E.03617
G1 X69.678 Y80.985 E.05109
G1 X69.616 Y76.086 E.15362
G1 X69.926 Y74.803 E.04138
G1 X70.444 Y73.798 E.03544
G1 X71.317 Y72.856 E.04028
G1 X71.946 Y72.387 E.02462
M204 P1000
G1 X72.17 Y72.69 F9000
M204 P800
G1 F1200
G1 X73.976 Y72.1 E.05956
G1 X96.091 Y71.921 E.69342
G1 X100.358 Y71.935 E.13381
G1 X101.657 Y71.987 E.04076
G1 X102.455 Y72.1 E.02527
G1 X103.429 Y72.332 E.03139
G1 X104.243 Y72.619 E.02707
G1 X105.003 Y72.978 E.02636
G1 X105.796 Y73.459 E.02907
G1 X106.523 Y74.005 E.02851
G1 X107.306 Y74.702 E.03287
G1 X108.089 Y75.493 E.0349
G1 X108.632 Y76.108 E.02572
G1 X109.164 Y76.814 E.02772
G1 X109.624 Y77.58 E.02801
G1 X109.824 Y78.047 E.01592
G1 X119.301 Y77.956 E.29716
G1 X121.13 Y78.507 E.05989
G1 X122.166 Y79.3 E.04089
G1 X122.938 Y80.38 E.04163
G1 X123.302 Y81.323 E.03171
G1 X123.528 Y82.205 E.02855
G1 X123.934 Y84.027 E.05851
G1 X124.213 Y85.752 E.05479
G1 X124.167 Y86.56 E.02537
G1 X123.979 Y87.324 E.02468
G1 X123.501 Y88.303 E.03417
G1 X122.866 Y89.071 E.03125
G1 X122.105 Y89.675 E.03045
G1 X121.206 Y90.097 E.03113
G1 X120.134 Y90.319 E.03432
G1 X115.25 Y90.337 E.15314
G1 X109.451 Y90.418 E.18185
G1 X109.232 Y90.874 E.01588
G1 X108.629 Y91.787 E.0343
G1 X108.072 Y92.475 E.02776
G1 X107.535 Y93.061 E.02492
G1 X106.977 Y93.613 E.02461
G1 X106.378 Y94.15 E.02523
G1 X105.753 Y94.649 E.02508
G1 X105.003 Y95.153 E.02833
G1 X104.732 Y95.294 E.00958
G1 X104.802 Y95.581 E.00927
G1 X105.476 Y95.582 E.02113
G1 X106.463 Y95.76 E.03144
G1 X107.483 Y96.217 E.03504
G1 X108.676 Y97.279 E.05009
G1 X109.228 Y98.203 E.03375
G1 X109.546 Y99.25 E.03431
G1 X109.706 Y103.825 E.14351
G1 X109.507 Y104.8 E.03121
G1 X109.079 Y105.744 E.0325
G1 X108.228 Y106.741 E.04111
G1 X107.605 Y107.232 E.02487
G1 X105.805 Y107.854 E.0597
G1 X102.554 Y107.935 E.10198
G1 X99.42 Y107.975 E.09825
G1 X84.437 Y108.076 E.4698
G1 X79.988 Y108.067 E.1395
G1 X78.827 Y108.03 E.03641
G1 X77.697 Y107.931 E.03558
G1 X76.856 Y107.772 E.02684
G1 X75.982 Y107.489 E.0288
G1 X74.531 Y106.763 E.05087
G1 X73.883 Y106.364 E.02388
G1 X73.084 Y105.796 E.03074
G1 X72.507 Y105.324 E.02337
G1 X71.759 Y104.624 E.03209
G1 X71.036 Y103.828 E.03372
G1 X70.56 Y103.221 E.02419
G1 X69.985 Y102.35 E.03272
G1 X60.494 Y102.265 E.29759
G1 X58.545 Y101.596 E.06463
G1 X57.825 Y101.018 E.02896
G1 X57.233 Y100.323 E.02861
G1 X56.605 Y98.88 E.04933
G1 X56.249 Y97.514 E.04429
G1 X55.994 Y96.25 E.04041
G1 X55.812 Y95.092 E.03677
G1 X55.77 Y94.079 E.03179
G1 X56.086 Y92.732 E.04338
G1 X56.726 Y91.653 E.03934
G1 X57.593 Y90.816 E.03779
G1 X58.78 Y90.204 E.04187
G1 X60.463 Y89.942 E.05339
G1 X61.919 Y89.901 E.04569
G1 X69.495 Y89.843 E.23754
G1 X69.879 Y89.059 E.02739
G1 X70.214 Y88.492 E.02066
G1 X70.757 Y87.726 E.02941
G1 X71.164 Y87.236 E.01998
G1 X71.731 Y86.644 E.0257
G1 X72.238 Y86.195 E.02124
G1 X72.919 Y85.686 E.02667
G1 X73.542 Y85.303 E.02291
G1 X74.469 Y84.848 E.03238
G1 X74.403 Y84.557 E.00934
G1 X74.118 Y84.554 E.00892
G1 X73.192 Y84.394 E.02947
G1 X72.205 Y83.978 E.03361
G1 X71.215 Y83.187 E.03972
G1 X70.576 Y82.358 E.0328
G1 X70.055 Y80.947 E.04716
G1 X69.993 Y76.106 E.15182
G1 X70.287 Y74.915 E.03845
G1 X70.738 Y74.035 E.03099
G1 X71.581 Y73.126 E.0389
G1 X72.122 Y72.726 E.02109
M204 P1000
G1 X72.345 Y73.03 F9000
M204 P800
G1 F1200
G1 X72.391 Y72.995 E.00182
G1 X74.007 Y72.477 E.05321
G1 X96.093 Y72.299 E.69249
G1 X100.354 Y72.312 E.1336
G1 X101.614 Y72.362 E.03956
G1 X102.376 Y72.469 E.02413
G1 X103.332 Y72.697 E.03079
G1 X104.108 Y72.971 E.02582
G1 X104.833 Y73.315 E.02514
G1 X105.592 Y73.777 E.02786
G1 X106.278 Y74.292 E.02691
G1 X107.042 Y74.972 E.03207
G1 X107.81 Y75.747 E.03423
G1 X108.336 Y76.341 E.02485
G1 X108.857 Y77.033 E.02717
G1 X109.293 Y77.762 E.02664
G1 X109.575 Y78.426 E.02262
G1 X119.276 Y78.333 E.3042
G1 X120.928 Y78.828 E.05406
G1 X121.914 Y79.582 E.03892
G1 X122.595 Y80.538 E.03679
G1 X122.939 Y81.428 E.02993
G1 X123.161 Y82.29 E.02791
G1 X123.564 Y84.104 E.05825
G1 X123.835 Y85.753 E.0524
G1 X123.796 Y86.488 E.02307
G1 X123.618 Y87.215 E.02348
G1 X123.195 Y88.081 E.03024
G1 X122.614 Y88.79 E.02873
G1 X121.922 Y89.344 E.02779
G1 X121.106 Y89.733 E.02836
G1 X120.113 Y89.942 E.0318
G1 X115.247 Y89.96 E.15259
G1 X109.21 Y90.044 E.18931
G1 X108.91 Y90.679 E.02201
G1 X108.331 Y91.557 E.03299
M73 P1 R82
G1 X107.783 Y92.233 E.02729
G1 X107.266 Y92.796 E.02395
G1 X106.721 Y93.335 E.02404
G1 X106.138 Y93.859 E.02458
G1 X105.536 Y94.34 E.02418
G1 X104.802 Y94.833 E.02771
G1 X103.612 Y95.443 E.04192
G1 X102.99 Y95.653 E.02059
G1 X103.043 Y95.97 E.01007
G1 X105.427 Y95.956 E.07477
G1 X106.374 Y96.127 E.03017
G1 X107.256 Y96.519 E.03026
G1 X108.367 Y97.498 E.04645
G1 X108.892 Y98.376 E.03206
G1 X109.178 Y99.334 E.03135
G1 X109.328 Y103.814 E.14054
G1 X109.142 Y104.702 E.02846
G1 X108.775 Y105.52 E.0281
G1 X107.954 Y106.482 E.03965
G1 X107.398 Y106.915 E.0221
G1 X105.767 Y107.478 E.0541
G1 X102.546 Y107.558 E.10103
G1 X99.417 Y107.598 E.09809
G1 X84.437 Y107.698 E.46971
G1 X79.997 Y107.69 E.13921
G1 X78.845 Y107.653 E.03615
G1 X77.739 Y107.556 E.03479
G1 X76.96 Y107.409 E.02487
G1 X76.138 Y107.145 E.02707
G1 X74.722 Y106.437 E.04965
G1 X74.096 Y106.053 E.02302
G1 X73.307 Y105.492 E.03034
G1 X72.76 Y105.044 E.02219
G1 X72.022 Y104.354 E.03165
G1 X71.32 Y103.58 E.03279
G1 X70.87 Y103.007 E.02283
G1 X70.189 Y101.975 E.03877
G1 X60.528 Y101.889 E.30294
G1 X58.754 Y101.281 E.05878
G1 X58.1 Y100.759 E.02624
G1 X57.539 Y100.1 E.02713
G1 X56.958 Y98.745 E.04623
G1 X56.615 Y97.424 E.0428
G1 X56.364 Y96.18 E.0398
G1 X56.186 Y95.044 E.03604
G1 X56.147 Y94.089 E.02997
G1 X56.425 Y92.899 E.03831
G1 X57.037 Y91.868 E.0376
G1 X57.833 Y91.107 E.03454
G1 X58.869 Y90.572 E.03654
G1 X60.485 Y90.319 E.05131
G1 X61.924 Y90.278 E.04513
G1 X69.755 Y90.218 E.24553
G1 X69.934 Y89.791 E.01454
G1 X70.213 Y89.235 E.01951
G1 X70.527 Y88.703 E.01936
G1 X71.052 Y87.961 E.0285
G1 X71.441 Y87.492 E.01911
G1 X71.998 Y86.911 E.02524
G1 X72.47 Y86.492 E.01979
G1 X73.124 Y86.002 E.02562
G1 X73.719 Y85.636 E.02191
G1 X74.389 Y85.299 E.02352
G1 X74.998 Y85.054 E.02058
G1 X75.764 Y84.821 E.02509
G1 X76.383 Y84.685 E.01989
G1 X77.271 Y84.575 E.02804
G1 X79.567 Y84.503 E.07204
G1 X79.56 Y84.131 E.01169
G1 X74.164 Y84.179 E.16919
G1 X73.279 Y84.026 E.02817
G1 X72.378 Y83.641 E.03073
G1 X71.469 Y82.907 E.03662
G1 X70.918 Y82.198 E.02816
G1 X70.431 Y80.909 E.0432
G1 X70.371 Y76.126 E.14998
G1 X70.647 Y75.028 E.0355
G1 X71.032 Y74.272 E.02659
G1 X71.845 Y73.395 E.03749
G1 X72.296 Y73.065 E.01753
M204 P1000
G1 X72.517 Y73.37 F9000
M204 P800
G1 F1200
G1 X72.588 Y73.319 E.00275
G1 X74.039 Y72.854 E.04777
G1 X96.095 Y72.676 E.69156
G1 X100.349 Y72.689 E.1334
G1 X101.572 Y72.737 E.03836
G1 X102.298 Y72.838 E.02299
G1 X103.234 Y73.061 E.03018
G1 X103.972 Y73.323 E.02457
G1 X104.662 Y73.651 E.02393
G1 X105.387 Y74.094 E.02665
G1 X106.033 Y74.579 E.02533
G1 X106.787 Y75.249 E.03163
G1 X107.538 Y76.009 E.0335
G1 X108.048 Y76.585 E.02413
G1 X108.538 Y77.235 E.02553
G1 X108.963 Y77.944 E.0259
G1 X109.325 Y78.806 E.02931
G1 X119.252 Y78.71 E.31128
G1 X120.729 Y79.149 E.0483
G1 X121.625 Y79.826 E.03523
G1 X122.252 Y80.697 E.03364
G1 X122.577 Y81.533 E.02812
G1 X122.794 Y82.375 E.02726
G1 X123.195 Y84.181 E.05801
G1 X123.458 Y85.754 E.05
G1 X123.421 Y86.449 E.02183
G1 X123.257 Y87.104 E.02117
G1 X122.889 Y87.861 E.02639
G1 X122.361 Y88.51 E.02623
G1 X121.738 Y89.015 E.02514
G1 X121.004 Y89.369 E.02557
G1 X120.092 Y89.565 E.02924
G1 X115.243 Y89.583 E.15202
G1 X108.968 Y89.67 E.19679
G1 X108.587 Y90.483 E.02814
G1 X108.032 Y91.327 E.03168
G1 X107.501 Y91.982 E.02645
G1 X106.998 Y92.531 E.02334
G1 X106.466 Y93.058 E.02346
G1 X105.898 Y93.568 E.02392
G1 X105.306 Y94.041 E.02376
G1 X104.601 Y94.514 E.02662
G1 X103.454 Y95.101 E.04042
G1 X102.764 Y95.33 E.02279
G1 X92.985 Y95.523 E.30668
G1 X86.919 Y95.562 E.19019
G1 X86.92 Y96.479 E.02876
G1 X98.923 Y96.37 E.37636
G1 X105.412 Y96.333 E.20347
G1 X106.245 Y96.482 E.02652
G1 X107.029 Y96.823 E.02681
G1 X108.096 Y97.762 E.04456
G1 X108.538 Y98.508 E.0272
G1 X108.802 Y99.373 E.02835
G1 X108.955 Y103.761 E.13767
G1 X108.79 Y104.567 E.0258
G1 X108.442 Y105.34 E.02655
G1 X107.682 Y106.22 E.03648
G1 X107.193 Y106.598 E.01937
G1 X105.729 Y107.102 E.04855
G1 X102.537 Y107.181 E.10009
G1 X99.414 Y107.221 E.09793
G1 X84.437 Y107.321 E.46961
G1 X80.006 Y107.313 E.13892
G1 X78.872 Y107.277 E.03558
G1 X77.799 Y107.183 E.03377
G1 X77.063 Y107.046 E.0235
G1 X76.293 Y106.801 E.02533
G1 X74.912 Y106.111 E.04841
G1 X74.309 Y105.742 E.02215
G1 X73.531 Y105.188 E.02994
G1 X73.013 Y104.764 E.021
G1 X72.286 Y104.084 E.03121
G1 X71.604 Y103.332 E.03185
G1 X71.179 Y102.79 E.02159
G1 X70.631 Y101.976 E.03075
G1 X70.422 Y101.6 E.01351
G1 X60.561 Y101.512 E.30917
G1 X58.964 Y100.966 E.05293
G1 X58.35 Y100.476 E.02463
G1 X57.846 Y99.88 E.02448
G1 X57.311 Y98.612 E.04314
G1 X56.982 Y97.335 E.04135
G1 X56.735 Y96.109 E.0392
G1 X56.56 Y94.997 E.03531
G1 X56.525 Y94.1 E.02815
G1 X56.765 Y93.065 E.03332
G1 X57.318 Y92.12 E.03432
G1 X58.034 Y91.427 E.03124
G1 X58.959 Y90.939 E.03278
G1 X60.508 Y90.695 E.04917
G1 X61.929 Y90.655 E.04457
G1 X70.007 Y90.594 E.25329
G1 X70.274 Y89.954 E.02174
G1 X70.547 Y89.41 E.01909
G1 X70.847 Y88.902 E.0185
G1 X71.355 Y88.185 E.02754
G1 X71.726 Y87.738 E.01822
G1 X72.265 Y87.178 E.02436
G1 X72.714 Y86.78 E.01883
G1 X73.343 Y86.31 E.02462
G1 X73.91 Y85.961 E.02085
G1 X74.551 Y85.639 E.02251
G1 X75.131 Y85.407 E.01958
G1 X75.866 Y85.184 E.02409
G1 X76.455 Y85.056 E.01891
G1 X77.291 Y84.952 E.02642
G1 X79.552 Y84.881 E.07092
G1 X84.146 Y84.807 E.14406
G1 X93.176 Y84.706 E.28312
G1 X93.157 Y83.63 E.03372
G1 X74.178 Y83.802 E.59509
G1 X73.365 Y83.659 E.02588
G1 X72.594 Y83.332 E.02627
G1 X71.724 Y82.628 E.03507
G1 X71.234 Y81.99 E.02522
G1 X70.808 Y80.87 E.03758
G1 X70.742 Y76.194 E.14663
G1 X71.007 Y75.142 E.03403
G1 X71.355 Y74.47 E.02372
G1 X72.107 Y73.667 E.03449
G1 X72.468 Y73.405 E.014
M204 P1000
G1 X72.688 Y73.711 F9000
M204 P800
G1 F1200
G1 X72.783 Y73.642 E.00369
G1 X74.07 Y73.23 E.04237
G1 X96.097 Y73.053 E.69064
G1 X100.345 Y73.066 E.1332
G1 X101.53 Y73.112 E.03718
G1 X102.219 Y73.207 E.02183
G1 X103.137 Y73.425 E.02956
G1 X103.836 Y73.675 E.0233
G1 X104.49 Y73.987 E.02272
G1 X105.183 Y74.411 E.02545
G1 X105.789 Y74.866 E.02375
G1 X106.532 Y75.527 E.0312
G1 X107.266 Y76.27 E.03276
G1 X107.761 Y76.829 E.0234
G1 X108.231 Y77.454 E.02451
G1 X108.632 Y78.125 E.02452
G1 X109.074 Y79.185 E.03601
G1 X119.228 Y79.088 E.31838
G1 X120.531 Y79.472 E.0426
G1 X121.338 Y80.072 E.03153
G1 X121.91 Y80.857 E.03046
G1 X122.215 Y81.638 E.02627
G1 X122.426 Y82.46 E.02661
G1 X122.826 Y84.258 E.05776
G1 X123.08 Y85.757 E.04765
G1 X123.05 Y86.376 E.01945
G1 X122.896 Y86.994 E.01996
G1 X122.582 Y87.64 E.02252
